X:105
T: Whither
S: "The Piper's Dream"
C: Pat McNulty
Z: B.Black
L: 1/8
M: 9/8
R: slip jig
K: G
GAB G2 B cde|dBd gdB AFD|GAB G2 B cde | dcB cBA G3 :|
Bdg B2 g BAG|Bdg B2 g edc|Bcd gfg dcB | cAa f2 d cBA |
Bdg B2 g BAG|Bdg B2 g edc|Bcd gfg bgd | a2 f dAB cBA ||
